symbolic/22x22/actions/im-user-offline.svg

<svg xmlns="http://www.w3.org/2000/svg" width="22" height="22"><defs><style id="current-color-scheme" type="text/css"></style></defs><path style="opacity:.3;fill:currentColor;color:#323a41" d="M8 9c-4.432 0-8 3.122-8 7h16c0-3.878-3.568-7-8-7zm4-5a4 4 0 0 1-4 4 4 4 0 0 1-4-4 4 4 0 0 1 4-4 4 4 0 0 1 4 4z" transform="translate(3 3)"/></svg>

<svg xmlns="http://www.w3.org/2000/svg" width="22" height="22" version="1.1">
 <defs>
  <style id="current-color-scheme" type="text/css">
   .ColorScheme-Text { color:#323a41; } .ColorScheme-Highlight { color:#4285f4; } .ColorScheme-NeutralText { color:#ff9800; } .ColorScheme-PositiveText { color:#4caf50; } .ColorScheme-NegativeText { color:#f44336; }
  </style>
 </defs>
 <g transform="translate(3,3)">
  <path style="opacity:0.3;fill:currentColor" class="ColorScheme-Text" d="M 8,9 C 3.568,9 0,12.122 0,16 H 16 C 16,12.122 12.432,9 8,9 Z M 12,4 A 4,4 0 0 1 8,8 4,4 0 0 1 4,4 4,4 0 0 1 8,0 4,4 0 0 1 12,4 Z"/>
 </g>
</svg>
